src/components/00-materials/images-raw/Upload.svg

<svg width="96" height="96" viewBox="0 0 96 96" fill="none" xmlns="http://www.w3.org/2000/svg">
<path d="M79 59.5V76.5C79 77.163 78.7366 77.7989 78.2678 78.2678C77.7989 78.7366 77.163 79 76.5 79H19.5C18.837 79 18.2011 78.7366 17.7322 78.2678C17.2634 77.7989 17 77.163 17 76.5V59.5C17 58.837 17.2634 58.2011 17.7322 57.7322C18.2011 57.2634 18.837 57 19.5 57C20.163 57 20.7989 57.2634 21.2678 57.7322C21.7366 58.2011 22 58.837 22 59.5V74H74V59.5C74 58.837 74.2634 58.2011 74.7322 57.7322C75.2011 57.2634 75.837 57 76.5 57C77.163 57 77.7989 57.2634 78.2678 57.7322C78.7366 58.2011 79 58.837 79 59.5Z" stroke="#00008F" stroke-width="2" stroke-linecap="round" stroke-linejoin="round"/>
<path d="M67.5 38C66.8364 38.662 65.9373 39.0337 65 39.0337C64.0627 39.0337 63.1636 38.662 62.5 38L52 27.54V59.54C52 60.6009 51.5786 61.6183 50.8284 62.3685C50.0783 63.1186 49.0609 63.54 48 63.54C46.9391 63.54 45.9217 63.1186 45.1716 62.3685C44.4214 61.6183 44 60.6009 44 59.54V27.54L33.5 38C32.8264 38.6091 31.9446 38.936 31.0368 38.9132C30.129 38.8904 29.2647 38.5196 28.6225 37.8775C27.9804 37.2354 27.6096 36.371 27.5868 35.4632C27.564 34.5554 27.8909 33.6736 28.5 33L45.5 16C45.8273 15.6699 46.2167 15.4078 46.6458 15.2289C47.0749 15.0501 47.5351 14.958 48 14.958C48.4649 14.958 48.9251 15.0501 49.3542 15.2289C49.7833 15.4078 50.1727 15.6699 50.5 16L67.5 33C68.1619 33.6636 68.5337 34.5627 68.5337 35.5C68.5337 36.4373 68.1619 37.3364 67.5 38V38Z" stroke="#00008F" stroke-width="2" stroke-linecap="round" stroke-linejoin="round"/>
</svg>

<svg width="96" height="96" viewBox="0 0 96 96" fill="none" xmlns="http://www.w3.org/2000/svg"><path d="M79 59.5v17a2.5 2.5 0 01-2.5 2.5h-57a2.5 2.5 0 01-2.5-2.5v-17a2.5 2.5 0 015 0V74h52V59.5a2.5 2.5 0 015 0z" stroke="#00008F" stroke-width="2" stroke-linecap="round" stroke-linejoin="round"/><path d="M67.5 38a3.54 3.54 0 01-5 0L52 27.54v32a4 4 0 11-8 0v-32L33.5 38a3.54 3.54 0 01-5-5l17-17a3.522 3.522 0 015 0l17 17a3.54 3.54 0 010 5v0z" stroke="#00008F" stroke-width="2" stroke-linecap="round" stroke-linejoin="round"/></svg>
